X:1
T:O! Billy Riley
M:4/4
L:1/8
K:G
 G2 GG G2 G2| AG FE F2 D2| A2 AA c2 B2| A4 z4| c2 cA B2 c2| BA cA B2 c2|\
 B2 dd c2 A2| G4 z4|
